!!!ONB: MCCC : IWM0418_01 : Extracted Monophonic Melody
!!!COM: Mozart, Wolfgang Amadeus
!!!OPR: Piano Sonata No.18
!!!OMV: 1
!!!SCT: K.576
!!!ODT: 1789///
**kern
*thru
*staff1
*>A
*clefG2
*k[f#c#]
*D:
*M6/8
*MM124
8A
=1
8d
8A
8d
8f#
8d
8f#
=2
4a
8a
4a
16cc#
32b
32cc#
=3
8dd
8r
16ee
32dd
32ee
8ff#
8r
16aa
16gg
=4
4.ff#
8ee
8r
8B
=5
8e
8B
8e
8g
8e
8g
=6
4b
8b
4b
8dd#
=7
16ff#
16ee
16gg
16ff#
16aa
16gg
8bb
8r
8cc#
=8
4.ee
8dd
8r
8r
=9
8r
8dd
8ff#
8aa
8ff#
8ddd[
=10
16ddd]
16ccc#
16eee
16ddd
16ccc#
16bb
16aa
16bb
16aa
16gg
16ff#
16ee
=11
16ff#
16aa
16ff#
16dd
16cc#
16a
16dd
16cc#
16dd
16ff#
16ee
16gg
=12
4.dd
8cc#
8r
8r
=13
8r
8ee
8gg
8bb
8gg
8eee[
=14
16eee]
16ddd#
16ccc
16bb
16aa
16gg
16ff#
16ee
16dd#
16cc
16b
16a
=15
16g
16b
16ee
16b
16gg
16ee
8bb
8b
8cc#
=16
4dd
8r
8r
16ddd
16ccc#
16bb
16aa
=17
16gg#
16aa
16gg#
16aa
16bb
16aa
8r
16aa
16gg
16ff#
16ee
=18
16cc#
16dd
16cc#
16dd
16ee
16dd
8r
16ddd
16ccc#
16bb
16aa
=19
16gg#
16aa
16gg#
16aa
16bb
16aa
8r
16aa
16gg
16ff#
16ee
=20
16cc#
16dd
16cc#
16dd
16gg
16ff#
16dd#
16ee
16dd#
16ee
16aa
16gg
=21
16ee#
16ff#
16ee#
16ff#
16bb
16aa
16aa
16gg
16ff#
16ee
16dd
16cc#
=22
16cc#
16dd
16cc#
16dd
16gg
16ff#
16dd#
16ee
16dd#
16ee
16aa
16gg
=23
16ee#
16ff#
16ee#
16ff#
16bb
16aa
16aa
16gg
16ff#
16ee
16dd
16cc#
=24
16r
16dd
16ff#
16aa
16ddd
16ccc#
16r
16b
16dd
16ff#
16bb
16aa
=25
16r
16g
16b
16dd
16gg
16ff#
16r
16e
16g
16b
16ee
16dd
=26
8cc#
8aa
8ff#
8ee
8aa
8ff#
=27
8ee
8aa
8a
8a
8r
8ee
=28
8aa
8ee
8aa
8ccc#
8aa
8ccc#
=29
16eee
16ddd
16ccc#
16bb
16aa#
16gg#
16ff#
16ee
16dd
16cc#
16b
16a#
=30
8b
8f#
8b
8dd
8b
8dd
=31
16ff#
16ee
16dd
16cc#
16b
16a#
16dd
16cc#
16b
16a
16g#
16f#
=32
8e
8B
8e
8g#
8e
8g#
=33
16b
16cc#
16dd
16cc#
16b
16a
16g#
16f#
16e
16f#
16d
16e
=34
16c#
16e
16d#
16e
16f#
16e
16a
16e
16d#
16e
16f#
16e
=35
16B
16e
16d#
16e
16c#
16e
16d
16e
16c#
16e
16B
16e
=36
16c#
16e
16d#
16e
16f#
16e
16a
16e
16d#
16e
16f#
16e
=37
16B
16e
16d#
16e
16c#
16e
16d
16e
16c#
16e
16B
16e
=38
16r
16c#
16e
16a
16cc#
16ee
16aa
16gg#
16ff#
16ee
16dd
16cc#
=39
16r
16a#
16b
16cc#
16dd
16ee
16ff#
16ee
16dd
16cc#
16b
16a
=40
16e
16cc#
16a
16ee
16cc#
16aa
4.b
=41
8a
8A
8A
8A
8r
8cc#
=42
4dd
8ee
8ff#
16ee
16dd
16cc#
16b
=43
4.a
4g#
8f#
=44
8f#
8e
8e
8e
8a
8cc#
=45
4cc#
8dd
8b
8r
8cc#
=46
8dd
16dd
16cc#
16ee
16dd
16ff#
16ee
16dd
16cc#
16dd
16b
=47
16a
16g#
16b
16a
16cc#
16b
16dd
16cc#
16ee
16dd
16ff#
16ee
=48
16ee
16aa
16gg#
16gg
16ff#
16ff
16ee
16aa
16gg#
16gg
16ff#
16ff
=49
4.ee
4.ee#
=50
8ff#
8r
16ff#
16gg#
16aa
16ee#
16ff#
16cc#
16dd
16b
=51
2.a
=52
4.cc#
8b
8a
8b
=53
8a
8r
16dd#
16ee
16ff#
16ee
16dd
16cc#
16b
16a
=54
16g#
16a
16b
16cc#
16dd
16ee
16ff#
16gg#
16aa
16bb
16ccc#
16ddd
=55
8ccc#
8r
16dd#
16ee
16ff#
16ee
16dd
16cc#
16b
16a
=56
16g#
16f#
16e
16f#
16g#
16a
16b
16cc#
16dd
16ee
16ff#
16gg#
=57
8aa
8ee
8ccc#
8aa
8ee
8ccc#
=58
4aa
8r
4r
*>A
*M6/8
8A
=59
8d
8A
8d
8f#
8d
8f#
=60
4a
8a
4a
16cc#
32b
32cc#
=61
8dd
8r
16ee
32dd
32ee
8ff#
8r
16aa
16gg
=62
4.ff#
8ee
8r
8B
=63
8e
8B
8e
8g
8e
8g
=64
4b
8b
4b
8dd#
=65
16ff#
16ee
16gg
16ff#
16aa
16gg
8bb
8r
8cc#
=66
4.ee
8dd
8r
8r
=67
8r
8dd
8ff#
8aa
8ff#
8ddd[
=68
16ddd]
16ccc#
16eee
16ddd
16ccc#
16bb
16aa
16bb
16aa
16gg
16ff#
16ee
=69
16ff#
16aa
16ff#
16dd
16cc#
16a
16dd
16cc#
16dd
16ff#
16ee
16gg
=70
4.dd
8cc#
8r
8r
=71
8r
8ee
8gg
8bb
8gg
8eee[
=72
16eee]
16ddd#
16ccc
16bb
16aa
16gg
16ff#
16ee
16dd#
16cc
16b
16a
=73
16g
16b
16ee
16b
16gg
16ee
8bb
8b
8cc#
=74
4dd
8r
8r
16ddd
16ccc#
16bb
16aa
=75
16gg#
16aa
16gg#
16aa
16bb
16aa
8r
16aa
16gg
16ff#
16ee
=76
16cc#
16dd
16cc#
16dd
16ee
16dd
8r
16ddd
16ccc#
16bb
16aa
=77
16gg#
16aa
16gg#
16aa
16bb
16aa
8r
16aa
16gg
16ff#
16ee
=78
16cc#
16dd
16cc#
16dd
16gg
16ff#
16dd#
16ee
16dd#
16ee
16aa
16gg
=79
16ee#
16ff#
16ee#
16ff#
16bb
16aa
16aa
16gg
16ff#
16ee
16dd
16cc#
=80
16cc#
16dd
16cc#
16dd
16gg
16ff#
16dd#
16ee
16dd#
16ee
16aa
16gg
=81
16ee#
16ff#
16ee#
16ff#
16bb
16aa
16aa
16gg
16ff#
16ee
16dd
16cc#
=82
16r
16dd
16ff#
16aa
16ddd
16ccc#
16r
16b
16dd
16ff#
16bb
16aa
=83
16r
16g
16b
16dd
16gg
16ff#
16r
16e
16g
16b
16ee
16dd
=84
8cc#
8aa
8ff#
8ee
8aa
8ff#
=85
8ee
8aa
8a
8a
8r
8ee
=86
8aa
8ee
8aa
8ccc#
8aa
8ccc#
=87
16eee
16ddd
16ccc#
16bb
16aa#
16gg#
16ff#
16ee
16dd
16cc#
16b
16a#
=88
8b
8f#
8b
8dd
8b
8dd
=89
16ff#
16ee
16dd
16cc#
16b
16a#
16dd
16cc#
16b
16a
16g#
16f#
=90
8e
8B
8e
8g#
8e
8g#
=91
16b
16cc#
16dd
16cc#
16b
16a
16g#
16f#
16e
16f#
16d
16e
=92
16c#
16e
16d#
16e
16f#
16e
16a
16e
16d#
16e
16f#
16e
=93
16B
16e
16d#
16e
16c#
16e
16d
16e
16c#
16e
16B
16e
=94
16c#
16e
16d#
16e
16f#
16e
16a
16e
16d#
16e
16f#
16e
=95
16B
16e
16d#
16e
16c#
16e
16d
16e
16c#
16e
16B
16e
=96
16r
16c#
16e
16a
16cc#
16ee
16aa
16gg#
16ff#
16ee
16dd
16cc#
=97
16r
16a#
16b
16cc#
16dd
16ee
16ff#
16ee
16dd
16cc#
16b
16a
=98
16e
16cc#
16a
16ee
16cc#
16aa
4.b
=99
8a
8A
8A
8A
8r
8cc#
=100
4dd
8ee
8ff#
16ee
16dd
16cc#
16b
=101
4.a
4g#
8f#
=102
8f#
8e
8e
8e
8a
8cc#
=103
4cc#
8dd
8b
8r
8cc#
=104
8dd
16dd
16cc#
16ee
16dd
16ff#
16ee
16dd
16cc#
16dd
16b
=105
16a
16g#
16b
16a
16cc#
16b
16dd
16cc#
16ee
16dd
16ff#
16ee
=106
16ee
16aa
16gg#
16gg
16ff#
16ff
16ee
16aa
16gg#
16gg
16ff#
16ff
=107
4.ee
4.ee#
=108
8ff#
8r
16ff#
16gg#
16aa
16ee#
16ff#
16cc#
16dd
16b
=109
2.a
=110
4.cc#
8b
8a
8b
=111
8a
8r
16dd#
16ee
16ff#
16ee
16dd
16cc#
16b
16a
=112
16g#
16a
16b
16cc#
16dd
16ee
16ff#
16gg#
16aa
16bb
16ccc#
16ddd
=113
8ccc#
8r
16dd#
16ee
16ff#
16ee
16dd
16cc#
16b
16a
=114
16g#
16f#
16e
16f#
16g#
16a
16b
16cc#
16dd
16ee
16ff#
16gg#
=115
8aa
8ee
8ccc#
8aa
8ee
8ccc#
=116
4aa
8r
4r
*>B
8r
=117
8aa
8ee
8ccc
8aa
8ee
8ccc
=118
4aa
8r
4r
8r
=119
8aa
8ee-
8ccc
8aa
8ee-
8ccc
=120
4aa
8r
4r
8f
=121
8b-
8f
8b-
8dd
8b-
8dd
=122
4ff
8ff
4ff
8bb-
=123
16aa
16gg
16ff
16gg
16aa
16bb-
16ccc
16bb-
16aa
16bb-
16ccc
16ddd
=124
8eee-
8ff
[8eee-
8eee-]
8ff
[8eee-
=125
16eee-]
16fff
16eee-
16ddd
16ccc
16bb-
16aa
16bb-
16aa
16gg
16ff
16ee-
=126
16dd
16ee-
16dd
16ccc
16ee-
16ccc
16dd
16ee-
16dd
16ccc
16ee-
16ccc
=127
16dd
16ccc
16aa
16gg
16ff#
16ee-
16dd
16ee-
16dd
16cc
16b-
16a
=128
8g
8r
8d
8g
8d
8g
=129
8b-
8g
8b-
4dd
8dd
=130
4dd
8gg
16ff#
16ee
16ff#
16dd
8bb-
=131
8aa
8r
8aa
16gg
16ff#
16gg
16dd
8ccc
=132
16bb-
16dd
16ee-
16dd
16ee-
16dd
16aa
16dd#
16ee
16dd#
16ee
16dd#
=133
16gg#
16aa
16bb
16ccc
16ddd
16ccc
16bb
16aa
16gg#
16ff
16ee
16dd
=134
4.cc
4.b
=135
16r
16a#
16cc#
16ff#
16aa#
16ccc#
16eee
16ccc#
16aa#
16gg
16ff#
16ee
=136
8dd
8r
16r
16dd
8ee#
8r
16r
16ee#
=137
16ff#
16cc#
16ff#
16aa#
16ccc#
16aa#
16ddd
16bb
16ddd
16bb
16gg#
16ee#
=138
16ff#
16cc#
16ff#
16aa#
16ccc#
16aa#
16ddd
16bb
16ddd
16bb
16gg#
16ee#
=139
8ff#
8cc#
8aa#
8ff#
8cc#
8aa#
=140
4ff#
8r
4r
8r
=141
8ff#
8cc#
8aa
8ff#
8cc#
8aa
=142
8gg#
8cc#
8bb
8gg#
8cc#
8bb
=143
8aa#
8cc#
8ccc#
8aa#
8cc#
8ccc#
=144
4bb
8r
4r
8r
=145
4.bb
4.aa#
=146
2.aa
=147
8ee
8b
8gg
8ee
8b
8gg
=148
8ff#
8b
8aa
8ff#
8b
8aa
=149
8gg#
8b
8bb
8gg#
8b
8bb
=150
4aa
8r
4r
8r
=151
2.aa
=152
2.aa
=153
2.aa
=154
2.aa
=155
16gg
16aa
16bb
16aa
16gg
16ff#
16ee
16ff#
16gg
16ff#
16ee
16dd
=156
16cc#
16dd
16ee
16dd
16cc#
16b
16a
16b
16a
16g
16f#
16e
=157
8d
8A
8d
8f#
8d
8f#
=158
4a
8a
4a
16cc#
32b
32cc#
=159
8dd
8r
16ee
32dd
32ee
8ff#
8r
16aa
16gg
=160
4.ff#
8ee
8r
8B
=161
8e
8B
8e
8g
8e
8g
=162
4b
8b
4b
8dd#
=163
16ff#
16ee
16gg
16ff#
16aa
16gg
8bb
8r
8cc#
=164
4.ee
8dd
8r
8r
=165
8r
8dd
8ff#
8aa
8ff#
8ddd[
=166
16ddd]
16ccc#
16eee
16ddd
16ccc#
16bb
16aa
16bb
16aa
16gg
16ff#
16ee
=167
4dd
8dd
8dd
8r
8d
=168
8g
8d
8g
8b
8g
8b
=169
4dd
8dd
8dd
8r
[8cc
=170
16cc]
16b
16dd
16cc
16b
16a
8g
8r
[8ccc
=171
16ccc]
16bb
16ddd
16ccc
16bb
16aa
8gg#
8r
[8dd
=172
16dd]
16cc
16ee
16dd
16cc
16b
8a
8r
[8ddd
=173
16ddd]
16ccc
16eee
16ddd
16ccc
16bb
8aa#
8r
[8ee
=174
16ee]
16dd
16ff#
16ee
16dd
16cc#
8b
8r
[8ff#
=175
16ff#]
16ee
16gg
16ff#
16ee
16dd
8cc#
8r
8gg
=176
16ff#
16dd
16ff#
16aa
16ddd
16ccc#
16r
16b
16dd
16ff#
16bb
16aa
=177
16r
16g
16b
16dd
16gg
16ff#
16r
16e
16g
16b
16ee
16dd
=178
8cc#
8aa
8ff#
8ee
8aa
8ff#
=179
8ee
8aa
8a
8a
8r
8f#
=180
4g
8a
8b
16a
16g
16f#
16e
=181
4.d
4c#
8B
=182
8B
8A
8A
8A
8d
8f#
=183
4f#
8g
8e
8r
8f#
=184
4g
8a
8b
16a
16g
16f#
16e
=185
4.d
8c#
8b
8a
=186
8a
8dd
8d
8f#
8r
8e
=187
4.e
8d
8r
8ff#
=188
8gg
16gg
16ff#
16aa
16gg
16bb
16aa
16gg
16ff#
16gg
16ee
=189
4dd
16ee
16dd
4cc#
8b
=190
8b
8a
8a
8a
8dd
8ff#
=191
4ff#
8gg
8ee
8r
8ff#
=192
8gg
16gg
16ff#
16aa
16gg
16bb
16aa
16gg
16ff#
16gg
16ee
=193
16dd
16cc#
16ee
16dd
16ff#
16ee
16gg
16ff#
16aa
16gg
16bb
16aa
=194
4.aa
4.gg#
=195
4.gg
8ff#
8r
8f#
=196
8b
8f#
8b
8dd
8b
8dd
=197
16ff#
16ee
16dd
16cc#
16b
16a#
16dd
16cc#
16b
16a
16g
16f#
=198
8e
8B
8e
8g
8e
8g
=199
16b
16a
16g
16f#
16e
16d#
16gg
16ff#
16ee
16dd
16cc#
16b
=200
8a
8e
8a
8cc#
8a
8cc#
=201
16ee
16ff#
16gg
16ff#
16ee
16dd
16cc#
16b
16a
16b
16g
16a
=202
16f#
16a
16g#
16a
16b
16a
16dd
16a
16g#
16a
16b
16a
=203
16e
16a
16g#
16a
16f#
16a
16g
16a
16f#
16a
16e
16a
=204
16r
16aa
16gg#
16aa
16bb
16aa
16ddd
16aa
16gg#
16aa
16bb
16aa
=205
16ee
16aa
16gg#
16aa
16ff#
16aa
16gg
16aa
16ff#
16aa
16ee
16aa
=206
16r
16ff#
16gg
16aa
16bb
16ccc#
16ddd
16ccc#
16bb
16aa
16gg
16ff#
=207
16r
16dd#
16ee
16ff#
16gg
16aa
16bb
16aa
16gg
16ff#
16ee
16dd
=208
16r
16g#
16b
16a
16cc#
16b
16dd
16cc#
16ee
16dd
16ff#
16ee
=209
16gg
16ff#
16aa
16gg
16bb
16aa
16ccc#
16bb
16ddd
16ccc#
16eee
16ddd
=210
8fff
8r
16bb
16ccc#
16ddd
16gg#
16bb
16dd
16ff
16b
=211
2.dd
=212
4.ff#
8ee
8dd
8ee
=213
8dd
8r
16gg#
16aa
16bb
16aa
16gg
16ff#
16ee
16dd
=214
16cc#
16dd
16dd#
16ee
16ff
16ff#
16gg
16gg#
16aa
16aa#
16bb
16gg
=215
8ff#
8r
16gg#
16aa
16bb
16aa
16gg
16ff#
16ee
16dd
=216
16cc#
16dd
16dd#
16ee
16ff
16ff#
16gg
16aa
16bb
16gg
16ee
16cc#
=217
8dd
8a
8ff#
8dd
8a
8ff#
=218
4dd
8r
4r
==
*-
